X:21045 
T:DOWNING'S REEL 
B:DMI.0591 
Z:Nordberg/Black
N:A-B-A in CRE
R:reel
%Q:1/4=180
M:C|
L:1/8
K:G
"A dorian"
F|G2FG EGDF|G2BG dGBG|G2FG EFDc|Beed BcAB|
G2FG EFDF|GABc dBAB|G2FG EFDA|Beed B2A :|
c|BAGA Bcd2|Beed Bcd2|BAGA Bcd2|Beed B2A2|
BAGA Bcd2|Beed Bcd2|G2GB A2Ac|Beed B2A :|

%%%

